X:524
T:Nellie the Elephant
C:Ralph Butler & Peter Hart, 1956
S:Colin Hume's website,  colinhume.com  - chords can also be printed below the stave.
Q:3/8=120
M:6/8
L:1/8
K:Gm
P:A
[| "Gm"B3 "D7"A3 | "Gm"G3 z2A | "Gm"Bcd "Cm"c2B | "D7"A3 z2A |\
"A7"A=B^c cBA | "D"d2A A2A | "A7"=e2A A2A | "D"^f3 z3 |
"Gm"B3 "D7"A3 | "Gm"G3 z2A | "Gm"Bcd "Cm"c2B | "D7"A3 z2A |\
"A7"^c2A A2A | "D"d2A AAA | "A7"g2g ^f2=e | "D"d3 z3 |
K:G
P:B
|: "G"Bcd BAG | "G"B2B d2d | "C"e2e gfe | "G"d3 B3 |\
"Am"c2c "D7"AAA | "Bm"ddd "Em"B3 |1 "D"f3 "A"e3 | "D"ded "D7"cBA :|2 "Am"e3 "D7"F3 | "G"G3- "G7"G2G ||
P:C
"C"Gce g2f | "G"g3 d3 | "Am"e3 "D7"d2c | "G"B3-B2B |\
"A7"A2B ^cBA | "D"d2e ffg | "A7"a2g f2e | "D"ded "D7"cBA |
"G"Bcd BAG | "G"B2B d2d | "C"e2e gfe | "G"d3 B3 |\
"Am"c2c "D7"AAA | "Bm"ddd "Em"B3 | "Am"e3 "D7"F3 | "G"G3 z3 |]

